src/assets/svg/icons/fa/nuevos/classic/thin/bridge-water classic thin.svg

<svg xmlns="http://www.w3.org/2000/svg" viewBox="0 0 576 512"><path d="M544 80H32C23.16 80 16 87.16 16 96V163.6C16 170.4 21.57 176 28.44 176C74.59 176 112 213.4 112 259.6V354.5C106.8 353.1 101.4 352.4 96 352.5V259.6C96 222.2 65.75 192 28.44 192C12.74 192 .0003 179.3 .0003 163.6V96C.0003 78.33 14.33 64 32 64H544C561.7 64 576 78.33 576 96V163.6C576 179.3 563.3 192 547.6 192C510.2 192 480 222.2 480 259.6V352.5C474.6 352.5 469.3 353.1 464 354.5V259.6C464 213.4 501.4 176 547.6 176C554.4 176 560 170.4 560 163.6V96C560 87.16 552.8 80 544 80V80zM192 384.5V272C192 218.1 234.1 176 288 176C341 176 384 218.1 384 272V384.5C378.8 384.5 373.4 383.9 368 382.8V272C368 227.8 332.2 192 288 192C243.8 192 208 227.8 208 272V382.9C202.7 383.9 197.4 384.5 192 384.5V384.5zM294.6 403.4C302.6 414.6 312.1 424.9 322.2 434.1C339.5 449.8 361.5 464 384 464C406.5 464 428.6 449.8 445.8 434.1C455.1 424.9 465.5 414.6 473.5 403.4C474.1 401.3 477.4 400 480 400C482.6 400 485.1 401.3 486.6 403.4C493.9 413.7 502.5 423 511.6 431.7C527.3 446.5 547.7 460.9 569 463.6C573.4 464.1 576.5 468.1 575.9 472.5C575.4 476.9 571.4 479.1 567 479.4C540.5 476.1 516.1 458.7 500.6 443.3C491.8 434.1 484.7 426.9 480 421.1C474.8 427.5 466.8 436.7 456.6 445.9C438.7 462.2 412.7 480 384 480C355.3 480 329.4 462.2 311.4 445.9C301.3 436.7 293.2 427.5 288 421.1L288 421.1L287.1 421.1C282.8 427.5 274.7 436.7 264.6 445.9C246.6 462.2 220.7 480 191.1 480C163.3 480 137.4 462.2 119.4 445.9C109.2 436.7 101.2 427.5 95.98 421.1C91.29 426.9 84.23 434.1 75.4 443.3C59.03 458.7 35.48 476.1 9.001 479.4C4.617 479.1 .616 476.9 .0637 472.5C-.4887 468.1 2.617 464.1 7.001 463.6C28.3 460.9 48.74 446.5 64.42 431.7C73.56 423 82.16 413.7 89.43 403.4C90.93 401.3 93.37 400 95.98 400C98.59 400 101 401.3 102.5 403.4C110.5 414.6 120 424.9 130.2 434.1C147.4 449.8 169.5 464 191.1 464C214.5 464 236.6 449.8 253.8 434.1C263.9 424.9 273.4 414.6 281.4 403.4C284.4 399.1 291.6 399.1 294.6 403.4H294.6z"/></svg>

<svg xmlns="http://www.w3.org/2000/svg" viewBox="0 0 576 512"><!--! Font Awesome Pro 6.4.0 by @fontawesome - https://fontawesome.com License - https://fontawesome.com/license (Commercial License) Copyright 2023 Fonticons, Inc. --><path d="M544 80H32c-8.8 0-16 7.2-16 16v67.6c0 6.9 5.6 12.4 12.4 12.4c46.1 0 83.6 37.4 83.6 83.6v94.9c-5.3-1.4-10.6-2-16-2V259.6C96 222.2 65.8 192 28.4 192C12.7 192 0 179.3 0 163.6V96C0 78.3 14.3 64 32 64H544c17.7 0 32 14.3 32 32v67.6c0 15.7-12.7 28.4-28.4 28.4c-37.3 0-67.6 30.2-67.6 67.6v92.9c-5.4 0-10.7 .7-16 2V259.6c0-46.1 37.4-83.6 83.6-83.6c6.9 0 12.4-5.6 12.4-12.4V96c0-8.8-7.2-16-16-16zM192 384.5h0V272c0-53 43-96 96-96s96 43 96 96V384.5c-5.2 0-10.6-.6-16-1.6V272c0-44.2-35.8-80-80-80s-80 35.8-80 80V382.9c-5.3 1-10.6 1.6-16 1.6zm102.6 19c8 11.2 17.5 21.4 27.6 30.7C339.5 449.8 361.5 464 384 464s44.6-14.2 61.8-29.9c10.1-9.2 19.7-19.5 27.6-30.7c1.5-2.1 3.9-3.4 6.6-3.4s5.1 1.3 6.6 3.4c7.3 10.3 15.9 19.6 25 28.3c15.7 14.8 36.1 29.2 57.4 31.9c4.4 .6 7.5 4.6 6.9 8.9s-4.6 7.5-8.9 6.9c-26.5-3.3-50-20.7-66.4-36.1c-8.8-8.3-15.9-16.4-20.6-22.2c-5.2 6.4-13.3 15.6-23.4 24.8c-18 16.3-43.9 34.1-72.6 34.1s-54.6-17.8-72.6-34.1c-10.2-9.2-18.2-18.4-23.4-24.8l0 0 0 0c-5.2 6.4-13.3 15.6-23.4 24.8c-18 16.3-43.9 34.1-72.6 34.1s-54.6-17.8-72.6-34.1c-10.2-9.2-18.2-18.4-23.4-24.8c-4.7 5.8-11.8 13.9-20.6 22.2C59 458.7 35.5 476.1 9 479.4c-4.4 .6-8.4-2.6-8.9-6.9s2.6-8.4 6.9-8.9c21.3-2.7 41.7-17.1 57.4-31.9c9.1-8.6 17.7-18 25-28.3c1.5-2.1 3.9-3.4 6.6-3.4s5.1 1.3 6.6 3.4c7.9 11.2 17.5 21.5 27.6 30.7C147.4 449.8 169.5 464 192 464s44.6-14.2 61.8-29.9c10.1-9.2 19.6-19.5 27.6-30.7c3-4.3 10.2-4.3 13.2 0z"/></svg>
